X:52
T:Gillian's Apples
Z: id:dc-jig-42
M:6/8
L:1/8
K:G Major
f|g3 B2A|GBA GBd|e3 edB|dBA ABA|!
DGG GBA|GBd g2a|bag fgf|ed^c d2:|!
e|faa faa|faa agf|gbb gbb|gbb bag|!
faa faa|faa afa|bag fgf|ed^c d2:|!

